X:221
T:Foot-guard's March. Or.... PFD2.221, The
B:Playford’s Dancing Master, Vol 2, 1713-28
Z:vmp.Robert Watkins 2015 www.village-music-project.org.uk
T:Boatswain Williams's Delight.
R:March
M:C|
L:1/8
Q:1/2=90
K:G
d4g4|f6ed|e2d2e2dc|d2B2d2cB|
c2A2c2BA|B3c Bcd2|G2c2B3A|A8||
A3B ABc2|B6cB|A2BA GBAG|F4BcBA|
G4ABAG|F2AB cB AG|F3GF2B2|G3FE2e2|
BcBcd2d2|d2cBc2c2|c2BA Bcd2|GcBAA3G|G8|]
W:Note: Each Strain is to be play'd twice over.
W:Longways for as many as will.
W:The first Cu. clap and cast off, and lead thro' the 3d Cu. .| Then clap and cast below the 3d Cu.
W:and lead quite up thro' the Top :| Then the first Man turn the 3d Wo. and the first Wo. turns the
W: 2d Man, at the same Time; Then first Wo. turn the 3d Man, and the first Man turn the 2d Wo. at
W:the same Time, and the first Man turn his Partner twice round .|  Then cross over quite round the
W:the 3d Cu. and Right and Left quite round with the 2d Cu.and turn your Partner :|

